exports/population-by-per-capita-household-consumption-bb127cf20e258cae7b176045ef825838_v6_850x600.svg

<svg xmlns="http://www.w3.org/2000/svg" version="1.1" style="background-color:#fff;-webkit-font-smoothing:antialiased" width="850" height="600" font-family="'Helvetica Neue',Helvetica,Arial,sans-serif" font-size="18" text-rendering="optimizeLegibility"><g class="ChartTab"><g class="HeaderView"><g opacity=".8" transform="matrix(.31 0 0 .31 770 15)"><a xmlns:xlink="http://www.w3.org/1999/xlink" xlink:href="https://ourworldindata.org" target="_blank"><g><path fill="#1B2543" d="M0 0h211.2v130.1H0z"/><path fill="#E63912" d="M0 112.2h211.2v17.9H0z"/><g><path fill="none" d="M1.2 12.3h210.2v99.2H1.2z"/><path fill="#FFF" d="M37.8 32.2c0 12.7-7.7 19.4-17.1 19.4-9.7 0-16.6-7.5-16.6-18.7 0-11.7 7.3-19.3 17.1-19.3 10.1.1 16.6 7.7 16.6 18.6zm-28.6.6c0 7.9 4.3 14.9 11.8 14.9 7.5 0 11.8-6.9 11.8-15.3 0-7.3-3.8-14.9-11.8-14.9-7.9 0-11.8 7.3-11.8 15.3zM62.7 43.8c0 2.7.1 5.1.2 7.2h-4.3l-.3-4.3h-.1c-1.3 2.1-4 4.9-8.8 4.9-4.2 0-9.1-2.3-9.1-11.6V24.6h4.8v14.6c0 5 1.5 8.4 5.9 8.4 3.2 0 5.5-2.2 6.3-4.4.3-.7.4-1.6.4-2.5V24.6h4.8v19.2zM67.3 32.8c0-3.1-.1-5.8-.2-8.2h4.2l.2 5.2h.2c1.2-3.5 4.1-5.8 7.3-5.8.5 0 .9.1 1.4.2v4.5c-.5-.1-1-.2-1.6-.2-3.4 0-5.8 2.6-6.5 6.2-.1.7-.2 1.4-.2 2.2V51h-4.8V32.8zM95.4 51L86 14.2h5l4.4 18.6c1.1 4.6 2.1 9.2 2.7 12.7h.1c.6-3.7 1.8-8 3-12.8l4.9-18.5h5l4.5 18.7c1 4.4 2 8.7 2.6 12.6h.1c.8-4 1.8-8.1 3-12.7l4.9-18.5h4.9L120.6 51h-5L111 31.9c-1.1-4.7-1.9-8.3-2.4-12h-.1c-.7 3.7-1.5 7.3-2.8 12L100.4 51h-5zM154.9 37.6c0 9.8-6.8 14-13.2 14-7.2 0-12.7-5.2-12.7-13.6 0-8.8 5.8-14 13.1-14 7.7 0 12.8 5.5 12.8 13.6zm-21 .3c0 5.8 3.3 10.1 8 10.1 4.6 0 8-4.3 8-10.3 0-4.5-2.2-10.1-7.9-10.1s-8.1 5.2-8.1 10.3zM158.2 32.8c0-3.1-.1-5.8-.2-8.2h4.2l.2 5.2h.2c1.2-3.5 4.1-5.8 7.3-5.8.5 0 .9.1 1.4.2v4.5c-.5-.1-1-.2-1.6-.2-3.4 0-5.8 2.6-6.5 6.2-.1.7-.2 1.4-.2 2.2V51h-4.8V32.8zM173.5 12.3h4.8V51h-4.8V12.3zM206.5 12.3v31.9c0 2.3.1 5 .2 6.8h-4.3l-.2-4.6h-.2c-1.5 2.9-4.7 5.2-9 5.2-6.4 0-11.3-5.4-11.3-13.4-.1-8.8 5.4-14.2 11.9-14.2 4 0 6.8 1.9 8 4h.1V12.3h4.8zm-4.8 23.1c0-.6-.1-1.4-.2-2a7 7 0 00-6.9-5.6c-5 0-7.9 4.4-7.9 10.2 0 5.3 2.6 9.8 7.8 9.8 3.2 0 6.2-2.1 7.1-5.7.2-.7.2-1.3.2-2.1v-4.6zM42.8 64c.1 1.6-1.1 2.9-3.1 2.9-1.7 0-2.9-1.3-2.9-2.9 0-1.7 1.3-3 3-3 1.9 0 3 1.3 3 3zm-5.4 33.8V71.4h4.8v26.4h-4.8zM47.5 78.6c0-2.7-.1-5-.2-7.1h4.3l.3 4.4h.1c1.3-2.5 4.4-5 8.8-5 3.7 0 9.4 2.2 9.4 11.2v15.8h-4.8V82.6c0-4.3-1.6-7.8-6.1-7.8-3.2 0-5.6 2.2-6.5 4.9-.2.6-.3 1.4-.3 2.2v15.9h-4.8V78.6zM84 61.6c2.9-.4 6.3-.8 10.1-.8 6.8 0 11.7 1.6 14.9 4.6 3.3 3 5.2 7.3 5.2 13.2 0 6-1.9 10.9-5.3 14.3-3.4 3.4-9.1 5.3-16.3 5.3-3.4 0-6.2-.2-8.6-.4V61.6zm4.8 32.5c1.2.2 3 .3 4.8.3 10.2 0 15.7-5.7 15.7-15.6.1-8.7-4.9-14.2-14.9-14.2-2.5 0-4.3.2-5.6.5v29zM132.1 97.8l-.4-3.3h-.2a9.79 9.79 0 01-8.1 3.9c-5.4 0-8.1-3.8-8.1-7.6 0-6.4 5.7-9.9 15.9-9.8v-.5c0-2.2-.6-6.1-6-6.1-2.5 0-5 .8-6.9 2l-1.1-3.2c2.2-1.4 5.4-2.3 8.7-2.3 8.1 0 10.1 5.5 10.1 10.8v9.9c0 2.3.1 4.5.4 6.3h-4.3zm-.7-13.4c-5.3-.1-11.2.8-11.2 5.9 0 3.1 2.1 4.6 4.5 4.6 3.4 0 5.6-2.2 6.4-4.4.2-.5.3-1 .3-1.5v-4.6zM146.6 63.9v7.6h6.9v3.7h-6.9v14.2c0 3.3.9 5.1 3.6 5.1 1.3 0 2.2-.2 2.8-.3l.2 3.6c-.9.4-2.4.7-4.3.7-2.2 0-4-.7-5.2-2-1.4-1.4-1.9-3.8-1.9-6.9V75.1h-4.1v-3.7h4.1v-6.3l4.8-1.2zM171.4 97.8l-.4-3.3h-.2a9.79 9.79 0 01-8.1 3.9c-5.4 0-8.1-3.8-8.1-7.6 0-6.4 5.7-9.9 15.9-9.8v-.5c0-2.2-.6-6.1-6-6.1-2.5 0-5 .8-6.9 2l-1.1-3.2c2.2-1.4 5.4-2.3 8.7-2.3 8.1 0 10.1 5.5 10.1 10.8v9.9c0 2.3.1 4.5.4 6.3h-4.3zm-.7-13.4c-5.3-.1-11.2.8-11.2 5.9 0 3.1 2.1 4.6 4.5 4.6 3.4 0 5.6-2.2 6.4-4.4.2-.5.3-1 .3-1.5v-4.6z"/></g></g></a></g><a href="https://ourworldindata.org/grapher/population-by-per-capita-household-consumption?stackMode=relative" target="_blank"><text font-size="25.2" x="15" y="35.2" fill="#555"><tspan x="15" y="35.16">Distribution of people between different poverty thresholds, World</tspan></text></a><text font-size="14.4" x="15" y="53.7" fill="#666"><tspan x="15" y="53.72">Poverty thresholds are all in &apos;international dollars&apos; at constant 2011 PPP prices. This means all figures account for</tspan><tspan x="15" y="69.56">cross-country differences in price levels, as well as for inflation. Estimates rely on a combination of income and</tspan><tspan x="15" y="85.4">consumption data (see sources for details).</tspan></text></g><g class="StackedArea"><defs><clipPath id="a"><path d="M61.63 0h820v897.8h-820z"/></clipPath></defs><g class="AxisBoxView"><g class="HorizontalAxis" fill="#666" text-anchor="middle" font-size="16.2"><text x="61.6" y="556.5">1981</text><text x="141.1" y="556.5">1985</text><text x="240.5" y="556.5">1990</text><text x="339.8" y="556.5">1995</text><text x="439.2" y="556.5">2000</text><text x="538.5" y="556.5">2005</text><text x="637.9" y="556.5">2010</text><text x="697.5" y="556.5">2013</text></g><g class="VerticalAxis" fill="#666" dominant-baseline="middle" text-anchor="end" font-size="16.2"><text x="56.63" y="535.3">0%</text><text x="56.63" y="449.8">20%</text><text x="56.63" y="364.2">40%</text><text x="56.63" y="278.7">60%</text><text x="56.63" y="193.1">80%</text><text x="56.63" y="107.6">100%</text></g><g class="AxisGridLines"><path stroke="#ccc" d="M61.63 535.3H697.5"/><path stroke="#ddd" stroke-dasharray="3,2" d="M61.63 449.8H697.5M61.63 364.2H697.5M61.63 278.7H697.5M61.63 193.1H697.5M61.63 107.6H697.5"/></g><g class="AxisGridLines" stroke="#ddd" stroke-dasharray="3,2"><path d="M141.1 535.3V107.6M240.5 535.3V107.6M339.8 535.3V107.6M439.2 535.3V107.6M538.5 535.3V107.6M637.9 535.3V107.6"/></g></g><g clip-path="url(#a)"><g class="HeightedLegend clickable"><g class="legendMark"><path fill="#34983f" d="M702.5 178.25h10v2.5h-10z"/><text font-size="14.4" x="717.5" y="183.8" fill="#333"><tspan x="717.5" y="183.82">above 10$ a day</tspan></text></g><g class="legendMark"><path fill="#9ecc8a" d="M702.5 334.15h10v2.5h-10z"/><text font-size="14.4" x="717.5" y="339.7" fill="#333"><tspan x="717.5" y="339.72">3.10 - 10$ a day</tspan></text></g><g class="legendMark"><path fill="#ffd53e" d="M702.5 453.25h10v2.5h-10z"/><text font-size="14.4" x="717.5" y="458.8" fill="#333"><tspan x="717.5" y="458.82">1.9 - 3.10$ a day</tspan></text></g><g class="legendMark"><path fill="#ca2628" d="M702.5 502.65h10v2.5h-10z"/><text font-size="14.4" x="717.5" y="508.2" fill="#333"><tspan x="717.5" y="508.22">1.25 - 1.9$ a day</tspan></text></g><g class="legendMark"><path fill="#3360a9" d="M702.5 525.55h10v2.5h-10z"/><text font-size="14.4" x="717.5" y="531.1" fill="#333"><tspan x="717.5" y="531.12">below 1.25$ a day</tspan></text></g></g><g class="Areas"><path d="M61.6 421l59.6 24.1 59.7 16.1 59.6-.4 59.6 4.2 59.6 14.8 59.6 1 59.6 7 59.6 13.8 59.6 5.4 39.8 4.1 19.9 3.3 19.8 1.9 19.9 2v17H61.63" fill="#3360a9" fill-opacity=".7" class="World_4-area"/><path d="M61.6 354.9l59.6 12.4 59.7 17.7 59.6-.6 59.6 5.6 59.6 19.9 59.6 3 59.6 12 59.6 21.5 59.6 11.9 39.8 9.9 19.9 8.5 19.8 4.9 19.9 7.9v28.8l-19.9-2-19.8-1.9-19.9-3.3-39.8-4.1-59.6-5.4-59.6-13.8-59.6-7-59.6-1-59.6-14.8-59.6-4.2-59.6.4-59.7-16.1L61.6 421" fill="#ca2628" fill-opacity=".7" class="World_3-area"/><path d="M61.6 294l59.6.8 59.7 7.5 59.6 1.7 59.6 2.7 59.6 12.6 59.6 4.4 59.6 14 59.6 22.3 59.6 17 39.8 12.7 19.9 10.5 19.8 7.5 19.9 11.7v70.1l-19.9-7.9-19.8-4.9-19.9-8.5-39.8-9.9-59.6-11.9-59.6-21.5-59.6-12-59.6-3-59.6-19.9-59.6-5.6-59.6.6-59.7-17.7-59.6-12.4" fill="#ffd53e" fill-opacity=".7" class="World_2-area"/><path d="M61.6 209.1l59.6-2.3h59.7l59.6-1.3 59.6.2 59.6.1 59.6-1 59.6 4.5 59.6 9.2 59.6 12.2 39.8 6.6 19.9 4.3 19.8 4.7 19.9 5.1v168l-19.9-11.7-19.8-7.5-19.9-10.5-39.8-12.7-59.6-17-59.6-22.3-59.6-14-59.6-4.4-59.6-12.6-59.6-2.7-59.6-1.7-59.7-7.5-59.6-.8" fill="#9ecc8a" fill-opacity=".7" class="World_1-area"/><path d="M61.6 107.6h635.9v143.8l-19.9-5.1-19.8-4.7-19.9-4.3-39.8-6.6-59.6-12.2-59.6-9.2-59.6-4.5-59.6 1-59.6-.1-59.6-.2-59.6 1.3h-59.7l-59.6 2.3" fill="#34983f" fill-opacity=".7" class="World_0-area"/><path stroke-linecap="round" d="M61.6 421l59.6 24.1 59.7 16.1 59.6-.4 59.6 4.2 59.6 14.8 59.6 1 59.6 7 59.6 13.8 59.6 5.4 39.8 4.1 19.9 3.3 19.8 1.9 19.9 2" stroke="#2B508D" stroke-opacity=".7" stroke-width=".5" fill="none" class="World_4-border"/><path stroke-linecap="round" d="M61.6 354.9l59.6 12.4 59.7 17.7 59.6-.6 59.6 5.6 59.6 19.9 59.6 3 59.6 12 59.6 21.5 59.6 11.9 39.8 9.9 19.9 8.5 19.8 4.9 19.9 7.9" stroke="#A92021" stroke-opacity=".7" stroke-width=".5" fill="none" class="World_3-border"/><path stroke-linecap="round" d="M61.6 294l59.6.8 59.7 7.5 59.6 1.7 59.6 2.7 59.6 12.6 59.6 4.4 59.6 14 59.6 22.3 59.6 17 39.8 12.7 19.9 10.5 19.8 7.5 19.9 11.7" stroke="#D5B234" stroke-opacity=".7" stroke-width=".5" fill="none" class="World_2-border"/><path stroke-linecap="round" d="M61.6 209.1l59.6-2.3h59.7l59.6-1.3 59.6.2 59.6.1 59.6-1 59.6 4.5 59.6 9.2 59.6 12.2 39.8 6.6 19.9 4.3 19.8 4.7 19.9 5.1" stroke="#84AB73" stroke-opacity=".7" stroke-width=".5" fill="none" class="World_1-border"/><path stroke-linecap="round" d="M61.6 107.6h635.9" stroke="#2C7F35" stroke-opacity=".7" stroke-width=".5" fill="none" class="World_0-border"/></g></g></g><g class="SourcesFooter" fill="#777"><g class="clickable" fill="#777"><text font-size="12.6" x="15" y="581.6"><tspan x="15" y="581.58">Source: World Bank</tspan></text></g><text font-size="12.6" x="649" y="581.6"><tspan x="649.02" y="581.58"><a target="_blank" href="https://ourworldindata.org" fill="#777">OurWorldInData.org</a> • <a href="http://creativecommons.org/licenses/by-sa/4.0/deed.en_US" target="_blank" fill="#777">CC BY-SA</a></tspan></text></g></g></svg>

<svg xmlns="http://www.w3.org/2000/svg" version="1.1" style="font-family: 'Helvetica Neue', Helvetica, Arial, sans-serif; font-size: 18px; background-color: white; text-rendering: optimizeLegibility; -webkit-font-smoothing: antialiased;" width="850" height="600"><g class="ChartTab"><g class="HeaderView"><g opacity="0.8" transform="translate(770, 15) scale(0.31)"><a xmlns:xlink="http://www.w3.org/1999/xlink" xlink:href="https://ourworldindata.org" target="_blank"><g><rect x="0" y="0" fill="#1B2543" width="211.2" height="130.1"/><rect x="0" y="112.2" fill="#E63912" width="211.2" height="17.9"/><g><rect x="1.2" y="12.3" fill="none" width="210.2" height="99.2"/><path fill="#FFFFFF" d="M37.8,32.2c0,12.7-7.7,19.4-17.1,19.4c-9.7,0-16.6-7.5-16.6-18.7c0-11.7,7.3-19.3,17.1-19.3 C31.3,13.7,37.8,21.3,37.8,32.2z M9.2,32.8c0,7.9,4.3,14.9,11.8,14.9c7.5,0,11.8-6.9,11.8-15.3c0-7.3-3.8-14.9-11.8-14.9 C13.1,17.5,9.2,24.8,9.2,32.8z"/><path fill="#FFFFFF" d="M62.7,43.8c0,2.7,0.1,5.1,0.2,7.2h-4.3l-0.3-4.3h-0.1c-1.3,2.1-4,4.9-8.8,4.9c-4.2,0-9.1-2.3-9.1-11.6 V24.6h4.8v14.6c0,5,1.5,8.4,5.9,8.4c3.2,0,5.5-2.2,6.3-4.4c0.3-0.7,0.4-1.6,0.4-2.5V24.6h4.8V43.8z"/><path fill="#FFFFFF" d="M67.3,32.8c0-3.1-0.1-5.8-0.2-8.2h4.2l0.2,5.2h0.2c1.2-3.5,4.1-5.8,7.3-5.8c0.5,0,0.9,0.1,1.4,0.2v4.5 c-0.5-0.1-1-0.2-1.6-0.2c-3.4,0-5.8,2.6-6.5,6.2c-0.1,0.7-0.2,1.4-0.2,2.2V51h-4.8V32.8z"/><path fill="#FFFFFF" d="M95.4,51l-9.4-36.8h5l4.4,18.6c1.1,4.6,2.1,9.2,2.7,12.7h0.1c0.6-3.7,1.8-8,3-12.8l4.9-18.5h5l4.5,18.7 c1,4.4,2,8.7,2.6,12.6h0.1c0.8-4,1.8-8.1,3-12.7l4.9-18.5h4.9L120.6,51h-5L111,31.9c-1.1-4.7-1.9-8.3-2.4-12h-0.1 c-0.7,3.7-1.5,7.3-2.8,12L100.4,51H95.4z"/><path fill="#FFFFFF" d="M154.9,37.6c0,9.8-6.8,14-13.2,14c-7.2,0-12.7-5.2-12.7-13.6c0-8.8,5.8-14,13.1-14 C149.8,24,154.9,29.5,154.9,37.6z M133.9,37.9c0,5.8,3.3,10.1,8,10.1c4.6,0,8-4.3,8-10.3c0-4.5-2.2-10.1-7.9-10.1 C136.3,27.6,133.9,32.8,133.9,37.9z"/><path fill="#FFFFFF" d="M158.2,32.8c0-3.1-0.1-5.8-0.2-8.2h4.2l0.2,5.2h0.2c1.2-3.5,4.1-5.8,7.3-5.8c0.5,0,0.9,0.1,1.4,0.2v4.5 c-0.5-0.1-1-0.2-1.6-0.2c-3.4,0-5.8,2.6-6.5,6.2c-0.1,0.7-0.2,1.4-0.2,2.2V51h-4.8V32.8z"/><path fill="#FFFFFF" d="M173.5,12.3h4.8V51h-4.8V12.3z"/><path fill="#FFFFFF" d="M206.5,12.3v31.9c0,2.3,0.1,5,0.2,6.8h-4.3l-0.2-4.6H202c-1.5,2.9-4.7,5.2-9,5.2 c-6.4,0-11.3-5.4-11.3-13.4c-0.1-8.8,5.4-14.2,11.9-14.2c4,0,6.8,1.9,8,4h0.1V12.3H206.5z M201.7,35.4c0-0.6-0.1-1.4-0.2-2 c-0.7-3.1-3.3-5.6-6.9-5.6c-5,0-7.9,4.4-7.9,10.2c0,5.3,2.6,9.8,7.8,9.8c3.2,0,6.2-2.1,7.1-5.7c0.2-0.7,0.2-1.3,0.2-2.1V35.4z"/><path fill="#FFFFFF" d="M42.8,64c0.1,1.6-1.1,2.9-3.1,2.9c-1.7,0-2.9-1.3-2.9-2.9c0-1.7,1.3-3,3-3C41.7,61,42.8,62.3,42.8,64z M37.4,97.8V71.4h4.8v26.4H37.4z"/><path fill="#FFFFFF" d="M47.5,78.6c0-2.7-0.1-5-0.2-7.1h4.3l0.3,4.4h0.1c1.3-2.5,4.4-5,8.8-5c3.7,0,9.4,2.2,9.4,11.2v15.8h-4.8 V82.6c0-4.3-1.6-7.8-6.1-7.8c-3.2,0-5.6,2.2-6.5,4.9c-0.2,0.6-0.3,1.4-0.3,2.2v15.9h-4.8V78.6z"/><path fill="#FFFFFF" d="M84,61.6c2.9-0.4,6.3-0.8,10.1-0.8c6.8,0,11.7,1.6,14.9,4.6c3.3,3,5.2,7.3,5.2,13.2c0,6-1.9,10.9-5.3,14.3 c-3.4,3.4-9.1,5.3-16.3,5.3c-3.4,0-6.2-0.2-8.6-0.4V61.6z M88.8,94.1c1.2,0.2,3,0.3,4.8,0.3c10.2,0,15.7-5.7,15.7-15.6 c0.1-8.7-4.9-14.2-14.9-14.2c-2.5,0-4.3,0.2-5.6,0.5V94.1z"/><path fill="#FFFFFF" d="M132.1,97.8l-0.4-3.3h-0.2c-1.5,2.1-4.3,3.9-8.1,3.9c-5.4,0-8.1-3.8-8.1-7.6c0-6.4,5.7-9.9,15.9-9.8v-0.5 c0-2.2-0.6-6.1-6-6.1c-2.5,0-5,0.8-6.9,2l-1.1-3.2c2.2-1.4,5.4-2.3,8.7-2.3c8.1,0,10.1,5.5,10.1,10.8v9.9c0,2.3,0.1,4.5,0.4,6.3 H132.1z M131.4,84.4c-5.3-0.1-11.2,0.8-11.2,5.9c0,3.1,2.1,4.6,4.5,4.6c3.4,0,5.6-2.2,6.4-4.4c0.2-0.5,0.3-1,0.3-1.5V84.4z"/><path fill="#FFFFFF" d="M146.6,63.9v7.6h6.9v3.7h-6.9v14.2c0,3.3,0.9,5.1,3.6,5.1c1.3,0,2.2-0.2,2.8-0.3l0.2,3.6 c-0.9,0.4-2.4,0.7-4.3,0.7c-2.2,0-4-0.7-5.2-2c-1.4-1.4-1.9-3.8-1.9-6.9V75.1h-4.1v-3.7h4.1v-6.3L146.6,63.9z"/><path fill="#FFFFFF" d="M171.4,97.8l-0.4-3.3h-0.2c-1.5,2.1-4.3,3.9-8.1,3.9c-5.4,0-8.1-3.8-8.1-7.6c0-6.4,5.7-9.9,15.9-9.8v-0.5 c0-2.2-0.6-6.1-6-6.1c-2.5,0-5,0.8-6.9,2l-1.1-3.2c2.2-1.4,5.4-2.3,8.7-2.3c8.1,0,10.1,5.5,10.1,10.8v9.9c0,2.3,0.1,4.5,0.4,6.3 H171.4z M170.7,84.4c-5.3-0.1-11.2,0.8-11.2,5.9c0,3.1,2.1,4.6,4.5,4.6c3.4,0,5.6-2.2,6.4-4.4c0.2-0.5,0.3-1,0.3-1.5V84.4z"/></g></g></a></g><a href="https://ourworldindata.org/grapher/population-by-per-capita-household-consumption?stackMode=relative" target="_blank"><text font-size="25.20" x="15.0" y="35.2" fill="#555"><tspan x="15" y="35.160000000000004">Distribution of people between different poverty thresholds, World</tspan></text></a><text font-size="14.40" x="15.0" y="53.7" fill="#666"><tspan x="15" y="53.72">Poverty thresholds are all in 'international dollars' at constant 2011 PPP prices. This means all figures account for</tspan><tspan x="15" y="69.56">cross-country differences in price levels, as well as for inflation. Estimates rely on a combination of income and</tspan><tspan x="15" y="85.4">consumption data (see sources for details).</tspan></text></g><g class="StackedArea"><defs><clipPath id="boundsClip-1"><rect x="61.634" y="0" width="820" height="897.8"></rect></clipPath></defs><g class="AxisBoxView"><g class="HorizontalAxis"><text x="61.6" y="556.5" fill="#666" text-anchor="middle" font-size="16.2">1981</text><text x="141.1" y="556.5" fill="#666" text-anchor="middle" font-size="16.2">1985</text><text x="240.5" y="556.5" fill="#666" text-anchor="middle" font-size="16.2">1990</text><text x="339.8" y="556.5" fill="#666" text-anchor="middle" font-size="16.2">1995</text><text x="439.2" y="556.5" fill="#666" text-anchor="middle" font-size="16.2">2000</text><text x="538.5" y="556.5" fill="#666" text-anchor="middle" font-size="16.2">2005</text><text x="637.9" y="556.5" fill="#666" text-anchor="middle" font-size="16.2">2010</text><text x="697.5" y="556.5" fill="#666" text-anchor="middle" font-size="16.2">2013</text></g><g class="VerticalAxis"><text x="56.63" y="535.3" fill="#666" dominant-baseline="middle" text-anchor="end" font-size="16.2">0%</text><text x="56.63" y="449.8" fill="#666" dominant-baseline="middle" text-anchor="end" font-size="16.2">20%</text><text x="56.63" y="364.2" fill="#666" dominant-baseline="middle" text-anchor="end" font-size="16.2">40%</text><text x="56.63" y="278.7" fill="#666" dominant-baseline="middle" text-anchor="end" font-size="16.2">60%</text><text x="56.63" y="193.1" fill="#666" dominant-baseline="middle" text-anchor="end" font-size="16.2">80%</text><text x="56.63" y="107.6" fill="#666" dominant-baseline="middle" text-anchor="end" font-size="16.2">100%</text></g><g class="AxisGridLines"><line x1="61.63" y1="535.3" x2="697.50" y2="535.3" stroke="#ccc"></line><line x1="61.63" y1="449.8" x2="697.50" y2="449.8" stroke="#ddd" stroke-dasharray="3,2"></line><line x1="61.63" y1="364.2" x2="697.50" y2="364.2" stroke="#ddd" stroke-dasharray="3,2"></line><line x1="61.63" y1="278.7" x2="697.50" y2="278.7" stroke="#ddd" stroke-dasharray="3,2"></line><line x1="61.63" y1="193.1" x2="697.50" y2="193.1" stroke="#ddd" stroke-dasharray="3,2"></line><line x1="61.63" y1="107.6" x2="697.50" y2="107.6" stroke="#ddd" stroke-dasharray="3,2"></line></g><g class="AxisGridLines"><line x1="141.1" y1="535.30" x2="141.1" y2="107.60" stroke="#ddd" stroke-dasharray="3,2"></line><line x1="240.5" y1="535.30" x2="240.5" y2="107.60" stroke="#ddd" stroke-dasharray="3,2"></line><line x1="339.8" y1="535.30" x2="339.8" y2="107.60" stroke="#ddd" stroke-dasharray="3,2"></line><line x1="439.2" y1="535.30" x2="439.2" y2="107.60" stroke="#ddd" stroke-dasharray="3,2"></line><line x1="538.5" y1="535.30" x2="538.5" y2="107.60" stroke="#ddd" stroke-dasharray="3,2"></line><line x1="637.9" y1="535.30" x2="637.9" y2="107.60" stroke="#ddd" stroke-dasharray="3,2"></line></g></g><g clip-path="url(#boundsClip-1)"><g class="HeightedLegend clickable"><g class="legendMark"><rect x="702.496" y="172.3" width="122.13600000000001" height="14.4" fill="#fff" opacity="0"></rect><rect x="702.496" y="178.25" width="10" height="2.5" fill="#34983f"></rect><text font-size="14.40" x="717.5" y="183.8" fill="#333"><tspan x="717.496" y="183.82000000000002">above 10$ a day</tspan></text></g><g class="legendMark"><rect x="702.496" y="328.2" width="119.68800000000002" height="14.4" fill="#fff" opacity="0"></rect><rect x="702.496" y="334.15" width="10" height="2.5" fill="#9ecc8a"></rect><text font-size="14.40" x="717.5" y="339.7" fill="#333"><tspan x="717.496" y="339.71999999999997">3.10 - 10$ a day</tspan></text></g><g class="legendMark"><rect x="702.496" y="447.3" width="123.72000000000001" height="14.4" fill="#fff" opacity="0"></rect><rect x="702.496" y="453.25" width="10" height="2.5" fill="#ffd53e"></rect><text font-size="14.40" x="717.5" y="458.8" fill="#333"><tspan x="717.496" y="458.82">1.9 - 3.10$ a day</tspan></text></g><g class="legendMark"><rect x="702.496" y="496.7" width="123.72000000000001" height="14.4" fill="#fff" opacity="0"></rect><rect x="702.496" y="502.65" width="10" height="2.5" fill="#ca2628"></rect><text font-size="14.40" x="717.5" y="508.2" fill="#333"><tspan x="717.496" y="508.21999999999997">1.25 - 1.9$ a day</tspan></text></g><g class="legendMark"><rect x="702.496" y="519.5999999999999" width="132.50400000000002" height="14.4" fill="#fff" opacity="0"></rect><rect x="702.496" y="525.55" width="10" height="2.5" fill="#3360a9"></rect><text font-size="14.40" x="717.5" y="531.1" fill="#333"><tspan x="717.496" y="531.1199999999999">below 1.25$ a day</tspan></text></g></g><g class="Areas"><rect x="61.634" y="107.60000000000001" width="635.862" height="427.69999999999993" opacity="0" fill="rgba(255,255,255,0)"></rect><path stroke-linecap="round" d="M61.6 421L121.2 445.1L180.9 461.2L240.5 460.8L300.1 465L359.7 479.8L419.3 480.8L478.9 487.8L538.5 501.6L598.1 507L637.9 511.1L657.8 514.4L677.6 516.3L697.5 518.3L697.496 535.3L61.634 535.3" fill="#3360a9" fill-opacity="0.7" class="World_4-area"></path><path stroke-linecap="round" d="M61.6 354.9L121.2 367.3L180.9 385L240.5 384.4L300.1 390L359.7 409.9L419.3 412.9L478.9 424.9L538.5 446.4L598.1 458.3L637.9 468.2L657.8 476.7L677.6 481.6L697.5 489.5L697.5 518.3L677.6 516.3L657.8 514.4L637.9 511.1L598.1 507L538.5 501.6L478.9 487.8L419.3 480.8L359.7 479.8L300.1 465L240.5 460.8L180.9 461.2L121.2 445.1L61.6 421" fill="#ca2628" fill-opacity="0.7" class="World_3-area"></path><path stroke-linecap="round" d="M61.6 294L121.2 294.8L180.9 302.3L240.5 304L300.1 306.7L359.7 319.3L419.3 323.7L478.9 337.7L538.5 360L598.1 377L637.9 389.7L657.8 400.2L677.6 407.7L697.5 419.4L697.5 489.5L677.6 481.6L657.8 476.7L637.9 468.2L598.1 458.3L538.5 446.4L478.9 424.9L419.3 412.9L359.7 409.9L300.1 390L240.5 384.4L180.9 385L121.2 367.3L61.6 354.9" fill="#ffd53e" fill-opacity="0.7" class="World_2-area"></path><path stroke-linecap="round" d="M61.6 209.1L121.2 206.8L180.9 206.8L240.5 205.5L300.1 205.7L359.7 205.8L419.3 204.8L478.9 209.3L538.5 218.5L598.1 230.7L637.9 237.3L657.8 241.6L677.6 246.3L697.5 251.4L697.5 419.4L677.6 407.7L657.8 400.2L637.9 389.7L598.1 377L538.5 360L478.9 337.7L419.3 323.7L359.7 319.3L300.1 306.7L240.5 304L180.9 302.3L121.2 294.8L61.6 294" fill="#9ecc8a" fill-opacity="0.7" class="World_1-area"></path><path stroke-linecap="round" d="M61.6 107.6L121.2 107.6L180.9 107.6L240.5 107.6L300.1 107.6L359.7 107.6L419.3 107.6L478.9 107.6L538.5 107.6L598.1 107.6L637.9 107.6L657.8 107.6L677.6 107.6L697.5 107.6L697.5 251.4L677.6 246.3L657.8 241.6L637.9 237.3L598.1 230.7L538.5 218.5L478.9 209.3L419.3 204.8L359.7 205.8L300.1 205.7L240.5 205.5L180.9 206.8L121.2 206.8L61.6 209.1" fill="#34983f" fill-opacity="0.7" class="World_0-area"></path><path stroke-linecap="round" d="M61.6 421L121.2 445.1L180.9 461.2L240.5 460.8L300.1 465L359.7 479.8L419.3 480.8L478.9 487.8L538.5 501.6L598.1 507L637.9 511.1L657.8 514.4L677.6 516.3L697.5 518.3" stroke="rgb(43, 80, 141)" stroke-opacity="0.7" stroke-width="0.5" fill="none" class="World_4-border"></path><path stroke-linecap="round" d="M61.6 354.9L121.2 367.3L180.9 385L240.5 384.4L300.1 390L359.7 409.9L419.3 412.9L478.9 424.9L538.5 446.4L598.1 458.3L637.9 468.2L657.8 476.7L677.6 481.6L697.5 489.5" stroke="rgb(169, 32, 33)" stroke-opacity="0.7" stroke-width="0.5" fill="none" class="World_3-border"></path><path stroke-linecap="round" d="M61.6 294L121.2 294.8L180.9 302.3L240.5 304L300.1 306.7L359.7 319.3L419.3 323.7L478.9 337.7L538.5 360L598.1 377L637.9 389.7L657.8 400.2L677.6 407.7L697.5 419.4" stroke="rgb(213, 178, 52)" stroke-opacity="0.7" stroke-width="0.5" fill="none" class="World_2-border"></path><path stroke-linecap="round" d="M61.6 209.1L121.2 206.8L180.9 206.8L240.5 205.5L300.1 205.7L359.7 205.8L419.3 204.8L478.9 209.3L538.5 218.5L598.1 230.7L637.9 237.3L657.8 241.6L677.6 246.3L697.5 251.4" stroke="rgb(132, 171, 115)" stroke-opacity="0.7" stroke-width="0.5" fill="none" class="World_1-border"></path><path stroke-linecap="round" d="M61.6 107.6L121.2 107.6L180.9 107.6L240.5 107.6L300.1 107.6L359.7 107.6L419.3 107.6L478.9 107.6L538.5 107.6L598.1 107.6L637.9 107.6L657.8 107.6L677.6 107.6L697.5 107.6" stroke="rgb(44, 127, 53)" stroke-opacity="0.7" stroke-width="0.5" fill="none" class="World_0-border"></path></g></g></g><g style="fill: #777;" class="SourcesFooter"><g style="fill: #777;" class="clickable"><text font-size="12.60" x="15.0" y="581.6"><tspan x="15" y="581.58">Source: World Bank</tspan></text></g><text font-size="12.60" x="649.0" y="581.6"><tspan x="649.024" y="581.58"><a target='_blank' style='fill: #777;' href='https://ourworldindata.org'>OurWorldInData.org</a> • <a style="fill: #777;" href="http://creativecommons.org/licenses/by-sa/4.0/deed.en_US" target="_blank">CC BY-SA</a></tspan></text></g></g></svg>
